packages/core/src/svgs/tokens/branded/RADIO.svg

<svg width="24" height="24" viewBox="0 0 24 24" fill="none" xmlns="http://www.w3.org/2000/svg">
<path fill-rule="evenodd" clip-rule="evenodd" d="M20.2353 12C20.2353 16.4883 16.4882 20.2353 12 20.2353C9.79996 20.2353 7.77057 19.3353 6.28235 17.8824H8.47057V14.353H9.98237L12.6706 17.8824H16.0353L13.1764 14.353C14.6471 14.0588 16.1177 12.2942 16.1177 10.2353C16.1177 7.29411 13.347 6.11764 12 6.11764H6.28235C7.77057 4.66469 9.79996 3.7647 12 3.7647C16.4882 3.7647 20.2353 7.51175 20.2353 12ZM5.52941 6.95294C4.42941 8.35881 3.7647 10.1118 3.7647 12C3.7647 13.8823 4.42941 15.647 5.52941 17.047V6.95294ZM22 12C22 14.6522 20.9464 17.1957 19.0711 19.071C17.1957 20.9464 14.6522 22 12 22C9.34784 22 6.80429 20.9464 4.92892 19.071C3.05357 17.1957 2 14.6522 2 12C2 9.34785 3.05357 6.80429 4.92892 4.92892C6.80429 3.05357 9.34784 2 12 2C14.6522 2 17.1957 3.05357 19.0711 4.92892C20.9464 6.80429 22 9.34785 22 12ZM11.4117 12H8.47057V8.47058H11.4117C12.2941 8.47058 13.1764 8.9294 13.1764 10.2353C13.1764 11.5412 12.2941 12 11.4117 12Z" fill="#EC1D25"/>
</svg>

<svg xmlns="http://www.w3.org/2000/svg" width="24" height="24" fill="none" viewBox="0 0 24 24">
    <path fill="#EC1D25" fill-rule="evenodd" d="M20.235 12c0 4.488-3.747 8.235-8.235 8.235-2.2 0-4.23-.9-5.718-2.353h2.189v-3.529h1.511l2.689 3.53h3.364l-2.859-3.53c1.471-.294 2.942-2.059 2.942-4.118 0-2.94-2.771-4.117-4.118-4.117H6.282C7.771 4.665 9.8 3.765 12 3.765c4.488 0 8.235 3.747 8.235 8.235M5.53 6.953C4.43 8.359 3.765 10.112 3.765 12a8.18 8.18 0 0 0 1.764 5.047zM22 12a10 10 0 1 1-20 0 10 10 0 0 1 20 0m-10.588 0H8.47V8.47h2.94c.883 0 1.765.46 1.765 1.765 0 1.306-.882 1.765-1.764 1.765" clip-rule="evenodd"/>
</svg>
